packages/icons/src/layers.svg

<svg width="15" height="15" viewBox="0 0 15 15" fill="none" xmlns="http://www.w3.org/2000/svg">
  <path
    fill-rule="evenodd"
    clip-rule="evenodd"
    d="M7.75432 0.819537C7.59742 0.726821 7.4025 0.726821 7.24559 0.819537L1.74559 4.06954C1.59336 4.15949 1.49996 4.32317 1.49996 4.5C1.49996 4.67683 1.59336 4.84051 1.74559 4.93046L7.24559 8.18046C7.4025 8.27318 7.59742 8.27318 7.75432 8.18046L13.2543 4.93046C13.4066 4.84051 13.5 4.67683 13.5 4.5C13.5 4.32317 13.4066 4.15949 13.2543 4.06954L7.75432 0.819537ZM7.49996 7.16923L2.9828 4.5L7.49996 1.83077L12.0171 4.5L7.49996 7.16923ZM1.5695 7.49564C1.70998 7.2579 2.01659 7.17906 2.25432 7.31954L7.49996 10.4192L12.7456 7.31954C12.9833 7.17906 13.2899 7.2579 13.4304 7.49564C13.5709 7.73337 13.4921 8.03998 13.2543 8.18046L7.75432 11.4305C7.59742 11.5232 7.4025 11.5232 7.24559 11.4305L1.74559 8.18046C1.50786 8.03998 1.42901 7.73337 1.5695 7.49564ZM1.56949 10.4956C1.70998 10.2579 2.01658 10.1791 2.25432 10.3195L7.49996 13.4192L12.7456 10.3195C12.9833 10.1791 13.2899 10.2579 13.4304 10.4956C13.5709 10.7334 13.4921 11.04 13.2543 11.1805L7.75432 14.4305C7.59742 14.5232 7.4025 14.5232 7.24559 14.4305L1.74559 11.1805C1.50785 11.04 1.42901 10.7334 1.56949 10.4956Z"
    fill="currentColor"
  />
</svg>

<svg xmlns="http://www.w3.org/2000/svg" width="15" height="15" fill="none"><path fill="currentColor" fill-rule="evenodd" d="M7.754.82a.5.5 0 0 0-.508 0l-5.5 3.25a.5.5 0 0 0 0 .86l5.5 3.25a.5.5 0 0 0 .508 0l5.5-3.25a.5.5 0 0 0 0-.86zM7.5 7.17 2.983 4.5 7.5 1.83l4.517 2.67zm-5.93.326a.5.5 0 0 1 .684-.176l5.246 3.1 5.246-3.1a.5.5 0 1 1 .508.86l-5.5 3.25a.5.5 0 0 1-.508 0l-5.5-3.25a.5.5 0 0 1-.177-.684m0 3a.5.5 0 0 1 .684-.177l5.246 3.1 5.246-3.1a.5.5 0 0 1 .508.861l-5.5 3.25a.5.5 0 0 1-.508 0l-5.5-3.25a.5.5 0 0 1-.177-.684" clip-rule="evenodd"/></svg>
